cmd/conneroh/_static/dist/svg/dna.svg

<svg height="18" viewBox="0 0 18 18" width="18" xmlns="http://www.w3.org/2000/svg"><path d="m10 16 1.5 1.5m2.5-9.5-1.5-1.5m2.5-4.5c-1.796875 2-2.515625 3.994792-2.807292 5.994792m4.307292 2.505208 1 1m-.5-5.5-2.890625-2.890625m-12.109375 11.890625c6.666667-6 13.333333 0 20-6m-2 0 .890625.890625m-17.78125 4.21875.890625.890625m2.5-2.5 1 1m-.5 4.5 2.890625 2.890625m-.890625 1.109375c1.796875-2 2.515625-3.994792 2.807292-5.994792" fill="none" stroke="#fff" stroke-linecap="round" stroke-linejoin="round" stroke-width="2" transform="scale(.75)"/></svg>

<svg xmlns="http://www.w3.org/2000/svg" width="24" height="24" fill="none" stroke="white" stroke-linecap="round" stroke-linejoin="round" stroke-width="2">
    <path d="m10 16 1.5 1.5M14 8l-1.5-1.5M15 2c-1.798 1.998-2.518 3.995-2.807 5.993M16.5 10.5l1 1M17 6l-2.891-2.891M2 15c6.667-6 13.333 0 20-6m-2 0 .891.891M3.109 14.109 4 15m2.5-2.5 1 1M7 18l2.891 2.891M9 22c1.798-1.998 2.518-3.995 2.807-5.993"/>
</svg>
